assets/icons/musical-note.svg

<svg width="18" height="18" viewBox="0 0 18 18" fill="none" xmlns="http://www.w3.org/2000/svg">
<path d="M13.8304 1.73811C13.7191 1.65708 13.5894 1.60153 13.4515 1.57582C13.3137 1.55012 13.1714 1.55496 13.0358 1.58996L6.0285 3.36983C5.78536 3.43153 5.57082 3.56783 5.4186 3.75731C5.26637 3.94678 5.18511 4.17868 5.18756 4.41655V11.924C5.18756 12.1479 5.03428 12.3412 4.79698 12.4167L4.79276 12.4183L2.96464 13.0163C2.26538 13.2372 1.81257 13.8507 1.81257 14.5785C1.81 14.8746 1.88287 15.1668 2.02502 15.4307C2.16716 15.6945 2.3744 15.9221 2.62924 16.0943C2.95742 16.3196 3.35249 16.4412 3.75811 16.4418C3.97032 16.4414 4.18107 16.4086 4.38214 16.3445L4.39549 16.3401L5.16331 16.0764C5.49637 15.9713 5.78628 15.7704 5.99239 15.5018C6.19849 15.2332 6.31045 14.9103 6.31257 14.5785V7.53614C6.31257 7.29397 6.48026 7.09731 6.74007 7.03553L6.74745 7.03353L12.8868 5.48421C12.9075 5.47915 12.9292 5.47863 12.9502 5.4827C12.9712 5.48677 12.9909 5.49531 13.0079 5.50768C13.0248 5.52005 13.0386 5.53592 13.0481 5.55408C13.0575 5.57223 13.0625 5.59219 13.0626 5.61243V10.3272C13.0626 10.5514 12.9132 10.7384 12.672 10.8148L12.6632 10.8178L10.8741 11.4194C10.5262 11.5276 10.2237 11.7375 10.0104 12.0188C9.79705 12.3001 9.684 12.6383 9.68756 12.9844C9.68442 13.2813 9.757 13.5746 9.89915 13.8394C10.0413 14.1042 10.2488 14.3328 10.5042 14.5058C10.7543 14.6766 11.0442 14.7879 11.3494 14.8305C11.6547 14.873 11.9663 14.8453 12.2578 14.7499L12.2705 14.746L13.0383 14.4819C13.3713 14.3769 13.6612 14.176 13.8674 13.9074C14.0735 13.6389 14.1854 13.3161 14.1876 12.9844V2.42342C14.1883 2.29084 14.1565 2.15992 14.0945 2.04098C14.0325 1.92204 13.9421 1.81836 13.8304 1.73811Z" fill="_COLOR_VAR_"/>
</svg>

<svg xmlns="http://www.w3.org/2000/svg" width="18" height="18"><path d="M13.83 1.738a.96.96 0 0 0-.795-.148L6.03 3.37a1.14 1.14 0 0 0-.61.387 1.03 1.03 0 0 0-.231.66v7.507c0 .224-.154.417-.391.493l-.004.001-1.828.598c-.7.221-1.152.835-1.152 1.563-.003.296.07.588.212.852s.35.491.604.663a2 2 0 0 0 1.753.25l.013-.004.768-.264a1.7 1.7 0 0 0 .83-.574c.205-.269.317-.592.32-.924V7.537c0-.242.167-.439.427-.5l.007-.002 6.14-1.55a.15.15 0 0 1 .12.024q.027.018.041.046t.015.058v4.715c0 .224-.15.411-.391.488l-.009.003-1.789.601c-.348.109-.65.319-.864.6a1.57 1.57 0 0 0-.322.965c-.004.297.069.59.211.855s.35.494.605.667a2 2 0 0 0 1.754.244l.013-.004.767-.264a1.7 1.7 0 0 0 .83-.575 1.54 1.54 0 0 0 .32-.923V2.424a.8.8 0 0 0-.094-.383.9.9 0 0 0-.264-.303"/></svg>
